styles/1/Numix-Circle/48x48/apps/thunar.svg

<?xml version="1.0" encoding="UTF-8" standalone="no"?>
<svg
   xmlns:dc="http://purl.org/dc/elements/1.1/"
   xmlns:cc="http://creativecommons.org/ns#"
   xmlns:rdf="http://www.w3.org/1999/02/22-rdf-syntax-ns#"
   xmlns:svg="http://www.w3.org/2000/svg"
   xmlns="http://www.w3.org/2000/svg"
   xmlns:xlink="http://www.w3.org/1999/xlink"
   xmlns:sodipodi="http://sodipodi.sourceforge.net/DTD/sodipodi-0.dtd"
   xmlns:inkscape="http://www.inkscape.org/namespaces/inkscape"
   width="48"
   viewBox="0 0 13.546667 13.546667"
   height="48"
   id="svg2"
   version="1.1"
   inkscape:version="0.91 r"
   sodipodi:docname="thunar.svg">
  <metadata
     id="metadata331">
    <rdf:RDF>
      <cc:Work
         rdf:about="">
        <dc:format>image/svg+xml</dc:format>
        <dc:type
           rdf:resource="http://purl.org/dc/dcmitype/StillImage" />
        <dc:title />
      </cc:Work>
    </rdf:RDF>
  </metadata>
  <sodipodi:namedview
     pagecolor="#ffffff"
     bordercolor="#666666"
     borderopacity="1"
     objecttolerance="10"
     gridtolerance="10"
     guidetolerance="10"
     inkscape:pageopacity="0"
     inkscape:pageshadow="2"
     inkscape:window-width="1280"
     inkscape:window-height="998"
     id="namedview329"
     showgrid="true"
     inkscape:zoom="6.059384"
     inkscape:cx="-47.381453"
     inkscape:cy="19.997282"
     inkscape:window-x="0"
     inkscape:window-y="0"
     inkscape:window-maximized="1"
     inkscape:current-layer="layer3"
     showguides="true"
     inkscape:guide-bbox="true">
    <inkscape:grid
       type="xygrid"
       id="grid3308" />
  </sodipodi:namedview>
  <defs
     id="defs4">
    <linearGradient
       inkscape:collect="always"
       xlink:href="#linearGradient4140-8"
       id="linearGradient4147"
       x1="-27"
       y1="13"
       x2="-24"
       y2="13"
       gradientUnits="userSpaceOnUse" />
    <linearGradient
       id="linearGradient4140-8">
      <stop
         style="stop-color:#6e6196;stop-opacity:1;"
         offset="0"
         id="stop4143-5" />
      <stop
         style="stop-color:#847baf;stop-opacity:1;"
         offset="1"
         id="stop4145-4" />
    </linearGradient>
  </defs>
  <g
     inkscape:groupmode="layer"
     id="layer1"
     inkscape:label="Shadow"
     sodipodi:insensitive="true">
    <path
       style="opacity:0.05;fill:#000000;fill-opacity:1;stroke:none"
       d="M 25,2 C 12.297451,2 2,12.297451 2,25 2,31.367153 4.6007106,37.116628 8.78125,41.28125 12.865755,44.99361 18.29568,47.25 24.25,47.25 c 12.702549,0 23,-10.297451 23,-23 0,-5.95432 -2.25639,-11.384245 -5.96875,-15.46875 C 37.116628,4.6007105 31.367153,2 25,2 z M 41.28125,8.78125 C 45.135604,12.894061 47.5,18.418655 47.5,24.5 c 0,12.702549 -10.297451,23 -23,23 C 18.418655,47.5 12.894061,45.135604 8.78125,41.28125 12.940939,45.4251 18.664604,48 25,48 37.702549,48 48,37.702549 48,25 48,18.664604 45.4251,12.940939 41.28125,8.78125 z"
       transform="scale(0.28222223,0.28222223)"
       id="path3978"
       inkscape:connector-curvature="0" />
    <path
       style="opacity:0.1;fill:#000000;fill-opacity:1;stroke:none"
       d="M 41.28125,8.78125 C 44.99361,12.865755 47.25,18.29568 47.25,24.25 c 0,12.702549 -10.297451,23 -23,23 -5.95432,0 -11.384245,-2.25639 -15.46875,-5.96875 C 12.894061,45.135604 18.418655,47.5 24.5,47.5 c 12.702549,0 23,-10.297451 23,-23 0,-6.081345 -2.364396,-11.605939 -6.21875,-15.71875 z"
       transform="scale(0.28222223,0.28222223)"
       id="path3976"
       inkscape:connector-curvature="0" />
    <path
       transform="matrix(4.3274074,0,0,3.2455556,117.19278,-35.348334)"
       d="m -24,13 a 1.5,2 0 1 1 -3,0 1.5,2 0 1 1 3,0 z"
       sodipodi:ry="2"
       sodipodi:rx="1.5"
       sodipodi:cy="13"
       sodipodi:cx="-25.5"
       id="path3952"
       style="opacity:0.2;fill:#000000;fill-opacity:1;stroke:none"
       sodipodi:type="arc" />
  </g>
  <g
     inkscape:groupmode="layer"
     id="layer2"
     inkscape:label="Base">
    <path
       sodipodi:type="arc"
       style="fill:url(#linearGradient4147);fill-opacity:1.0;stroke:none"
       id="path3942"
       sodipodi:cx="-25.5"
       sodipodi:cy="13"
       sodipodi:rx="1.5"
       sodipodi:ry="2"
       d="m -24,13 a 1.5,2 0 1 1 -3,0 1.5,2 0 1 1 3,0 z"
       transform="matrix(0,-4.3274075,3.2455556,0,-35.429918,-103.60974)" />
    <path
       style="opacity:0.1;fill:#000000;fill-opacity:1;stroke:none"
       d="M 40.03125 7.53125 C 43.74361 11.615755 46 17.04568 46 23 C 46 35.702549 35.702549 46 23 46 C 17.04568 46 11.615755 43.74361 7.53125 40.03125 C 11.709416 44.322508 17.537578 47 24 47 C 36.702549 47 47 36.702549 47 24 C 47 17.537578 44.322508 11.709416 40.03125 7.53125 z "
       transform="scale(0.28222223,0.28222223)"
       id="path4027" />
  </g>
  <g
     inkscape:groupmode="layer"
     id="layer3"
     inkscape:label="Symbol">
    <path
       style="opacity:0.1;fill:#000000;fill-opacity:1;fill-rule:nonzero;stroke:none"
       d="M 13.8125 16 C 13.371574 16.05099 12.997 16.464595 13 16.9375 L 13 34.03125 C 13.000058 34.53115 13.434329 35 13.90625 35 L 36 35 C 36.472922 35 37 34.4999 37 34 L 37 19 C 37 18.5001 36.472922 18 36 18 L 27 18 L 27 17 C 26.9987 16.35213 26.550908 16 26 16 L 13.8125 16 z M 21.5 22 L 21.53125 22 C 22.547831 22.005284 23.507296 22.262461 24.34375 22.71875 C 24.140545 22.874707 23.797283 23.156576 23.5 23.4375 C 22.893397 23.167577 22.207701 23.03125 21.5 23.03125 C 21.014525 23.03125 20.566439 23.121034 20.125 23.25 C 20.395269 24.581632 21.182162 25.695446 22.28125 26.40625 C 22.332274 26.438243 22.45262 26.507775 22.59375 26.59375 C 22.844 26.749705 23.167884 26.926019 23.53125 27 C 23.992705 27.136967 24.4955 27.1875 25 27.1875 C 25.281278 27.1875 25.570455 27.171984 25.84375 27.125 C 25.875888 27.245967 25.887047 27.468333 25.875 27.78125 C 25.867205 27.9572 25.859695 28.085527 25.84375 28.1875 C 25.562468 28.230473 25.29328 28.25 25 28.25 C 24.459465 28.25 23.937996 28.168209 23.4375 28.03125 C 23.440501 29.44086 24.002578 30.723249 24.9375 31.625 C 25.841398 30.750242 26.429738 29.539112 26.46875 28.1875 L 26.46875 28.15625 L 26.46875 28.0625 C 26.472754 27.91854 26.500571 27.562917 26.4375 27.25 C 26.413512 27.125038 26.387047 27.062982 26.375 27 C 26.343819 26.867037 26.3125 26.8125 26.3125 26.8125 C 26.140327 26.12569 25.828669 25.507601 25.40625 24.96875 C 25.433275 24.944756 25.819577 24.613419 26.25 24.3125 C 26.766515 24.976317 27.144545 25.781233 27.34375 26.625 C 28.623018 25.942188 29.538352 24.7106 29.84375 23.25 C 29.386295 23.109037 28.906749 23.03125 28.40625 23.03125 C 27.56542 23.03125 26.785435 23.258101 26.09375 23.625 C 25.987628 23.679985 25.883368 23.749518 25.78125 23.8125 C 25.578048 23.945463 25.317093 24.132584 24.96875 24.4375 C 24.957766 24.448484 24.94565 24.456738 24.9375 24.46875 C 24.902492 24.499743 24.866781 24.5355 24.84375 24.5625 C 24.832766 24.574491 24.816398 24.585742 24.8125 24.59375 C 24.32402 25.109607 23.921748 25.726437 23.6875 26.40625 C 23.406218 26.273285 23.097561 26.094198 22.78125 25.90625 C 23.07454 25.132464 23.530194 24.460838 24.09375 23.875 C 24.113593 23.855009 24.105157 23.832484 24.125 23.8125 C 24.29617 23.648545 24.562129 23.378671 24.9375 23.09375 C 25.914468 22.402941 27.119973 22 28.40625 22 C 28.937774 22 29.472251 22.085777 29.96875 22.21875 C 30.243023 22.308725 30.741518 22.460527 30.96875 22.5625 L 30.96875 22.59375 C 30.975837 22.597754 30.99185 22.589746 31 22.59375 C 31 22.648735 30.921598 23.176383 30.8125 23.65625 C 30.816398 23.660254 30.80435 23.683496 30.8125 23.6875 C 30.371064 25.477005 29.142624 26.929709 27.5 27.6875 C 27.503189 27.800468 27.5 27.918282 27.5 28.03125 C 27.5 29.678794 26.84831 31.160301 25.78125 32.25 C 25.699169 32.339975 25.386576 32.687055 25.03125 33 C 25.02023 32.984006 24.991781 32.980762 24.96875 32.96875 C 24.882665 32.902769 24.465581 32.570171 24.15625 32.28125 C 24.1644 32.277246 24.1481 32.254004 24.15625 32.25 C 23.089194 31.161301 22.40625 29.678794 22.40625 28.03125 C 22.40625 27.906283 22.42935 27.777219 22.4375 27.65625 C 20.822896 26.874466 19.609915 25.409506 19.1875 23.625 C 19.148488 23.429054 19.055028 22.996379 19 22.5625 C 19.007795 22.558496 19.027352 22.5625 19.03125 22.5625 L 19.03125 22.53125 C 19.109323 22.496259 19.499722 22.293209 20.03125 22.15625 L 20.03125 22.1875 C 20.498253 22.068942 20.99438 22.002719 21.5 22 z "
       transform="scale(0.28222223,0.28222223)"
       id="path45" />
    <path
       style="opacity:0.1;fill:#000000;fill-opacity:1;fill-rule:nonzero;stroke:none"
       inkscape:connector-curvature="0"
       id="path47"
       d="m 5.0803332,4.2333334 0,0.5643316 0.56435,0 0,-0.5643316 m -0.56435,0.5643316 -0.56435,0 0,0.5643316 0.56435,0 m 0,0 0,0.5643316 0.56435,0 0,-0.5643316 m -0.56435,0.5643316 -0.56435,0 0,0.5643316 0.56435,0 m 0,0 0,0.5643316 0.56435,0 0,-0.5643316 m -1.1287,0.8464974 0,1.1286632 1.1287,0 0,-1.1286632 m -1.1287,0" />
    <path
       style="fill:#ececec;fill-opacity:1;fill-rule:nonzero;stroke:none"
       d="M 12.8125 15 C 12.371574 15.05096 11.997 15.496148 12 15.96875 L 12 33.03125 C 12.000058 33.53083 12.434329 34 12.90625 34 L 35 34 C 35.47292 34 36 33.499579 36 33 L 36 18.03125 C 36 17.531671 35.47292 17.03125 35 17.03125 L 26 17.03125 L 26 16 C 25.9987 15.352546 25.550907 15 25 15 L 12.8125 15 z M 20.5 21 L 20.53125 21 C 21.547831 21.005284 22.507296 21.262461 23.34375 21.71875 C 23.140545 21.874707 22.797283 22.156576 22.5 22.4375 C 21.893397 22.167577 21.207701 22.03125 20.5 22.03125 C 20.014525 22.03125 19.566439 22.121034 19.125 22.25 C 19.395269 23.581632 20.182162 24.695446 21.28125 25.40625 C 21.332274 25.438243 21.45262 25.507775 21.59375 25.59375 C 21.844 25.749705 22.167884 25.926019 22.53125 26 C 22.992705 26.136967 23.4955 26.1875 24 26.1875 C 24.281278 26.1875 24.570455 26.171984 24.84375 26.125 C 24.875888 26.245967 24.887047 26.468333 24.875 26.78125 C 24.867205 26.9572 24.859695 27.085527 24.84375 27.1875 C 24.562468 27.230473 24.29328 27.25 24 27.25 C 23.459465 27.25 22.937996 27.168209 22.4375 27.03125 C 22.440501 28.44086 23.002578 29.723249 23.9375 30.625 C 24.841398 29.750242 25.429738 28.539112 25.46875 27.1875 L 25.46875 27.15625 L 25.46875 27.0625 C 25.472754 26.91854 25.500571 26.562917 25.4375 26.25 C 25.413512 26.125038 25.387047 26.062982 25.375 26 C 25.343819 25.867037 25.3125 25.8125 25.3125 25.8125 C 25.140327 25.12569 24.828669 24.507601 24.40625 23.96875 C 24.433275 23.944756 24.819577 23.613419 25.25 23.3125 C 25.766515 23.976317 26.144545 24.781233 26.34375 25.625 C 27.623018 24.942188 28.538352 23.7106 28.84375 22.25 C 28.386295 22.109037 27.906749 22.03125 27.40625 22.03125 C 26.56542 22.03125 25.785435 22.258101 25.09375 22.625 C 24.987628 22.679985 24.883368 22.749518 24.78125 22.8125 C 24.578048 22.945463 24.317093 23.132584 23.96875 23.4375 C 23.957766 23.448484 23.94565 23.456738 23.9375 23.46875 C 23.902492 23.499743 23.866781 23.5355 23.84375 23.5625 C 23.832766 23.574491 23.816398 23.585742 23.8125 23.59375 C 23.32402 24.109607 22.921748 24.726437 22.6875 25.40625 C 22.406218 25.273285 22.097561 25.094198 21.78125 24.90625 C 22.07454 24.132464 22.530194 23.460838 23.09375 22.875 C 23.113593 22.855009 23.105157 22.832484 23.125 22.8125 C 23.29617 22.648545 23.562129 22.378671 23.9375 22.09375 C 24.914468 21.402941 26.119973 21 27.40625 21 C 27.937774 21 28.472251 21.085777 28.96875 21.21875 C 29.243023 21.308725 29.741518 21.460527 29.96875 21.5625 L 29.96875 21.59375 C 29.975837 21.597754 29.99185 21.589746 30 21.59375 C 30 21.648735 29.921598 22.176383 29.8125 22.65625 C 29.816398 22.660254 29.80435 22.683496 29.8125 22.6875 C 29.371064 24.477005 28.142624 25.929709 26.5 26.6875 C 26.503189 26.800468 26.5 26.918282 26.5 27.03125 C 26.5 28.678794 25.84831 30.160301 24.78125 31.25 C 24.699169 31.339975 24.386576 31.687055 24.03125 32 C 24.02023 31.984006 23.991781 31.980762 23.96875 31.96875 C 23.882665 31.902769 23.465581 31.570171 23.15625 31.28125 C 23.1644 31.277246 23.1481 31.254004 23.15625 31.25 C 22.089194 30.161301 21.40625 28.678794 21.40625 27.03125 C 21.40625 26.906283 21.42935 26.777219 21.4375 26.65625 C 19.822896 25.874466 18.609915 24.409506 18.1875 22.625 C 18.148488 22.429054 18.055028 21.996379 18 21.5625 C 18.007795 21.558496 18.027352 21.5625 18.03125 21.5625 L 18.03125 21.53125 C 18.109323 21.496259 18.499722 21.293209 19.03125 21.15625 L 19.03125 21.1875 C 19.498253 21.068942 19.99438 21.002719 20.5 21 z "
       transform="scale(0.28222223,0.28222223)"
       id="path55" />
  </g>
</svg>

<svg xmlns="http://www.w3.org/2000/svg" viewBox="0 0 48 48">
 <defs>
  <linearGradient id="linearGradient3764" x1="1" x2="47" gradientUnits="userSpaceOnUse" gradientTransform="matrix(0,-1,1,0,-1.5e-6,47.999998)">
   <stop style="stop-color:#7568a0;stop-opacity:1"/>
   <stop offset="1" style="stop-color:#8074a8;stop-opacity:1"/>
  </linearGradient>
 </defs>
 <g>
  <path d="m 36.31 5 c 5.859 4.062 9.688 10.831 9.688 18.5 c 0 12.426 -10.07 22.5 -22.5 22.5 c -7.669 0 -14.438 -3.828 -18.5 -9.688 c 1.037 1.822 2.306 3.499 3.781 4.969 c 4.085 3.712 9.514 5.969 15.469 5.969 c 12.703 0 23 -10.298 23 -23 c 0 -5.954 -2.256 -11.384 -5.969 -15.469 c -1.469 -1.475 -3.147 -2.744 -4.969 -3.781 z m 4.969 3.781 c 3.854 4.113 6.219 9.637 6.219 15.719 c 0 12.703 -10.297 23 -23 23 c -6.081 0 -11.606 -2.364 -15.719 -6.219 c 4.16 4.144 9.883 6.719 16.219 6.719 c 12.703 0 23 -10.298 23 -23 c 0 -6.335 -2.575 -12.06 -6.719 -16.219 z" style="opacity:0.05"/>
  <path d="m 41.28 8.781 c 3.712 4.085 5.969 9.514 5.969 15.469 c 0 12.703 -10.297 23 -23 23 c -5.954 0 -11.384 -2.256 -15.469 -5.969 c 4.113 3.854 9.637 6.219 15.719 6.219 c 12.703 0 23 -10.298 23 -23 c 0 -6.081 -2.364 -11.606 -6.219 -15.719 z" style="opacity:0.1"/>
  <path d="m 31.25 2.375 c 8.615 3.154 14.75 11.417 14.75 21.13 c 0 12.426 -10.07 22.5 -22.5 22.5 c -9.708 0 -17.971 -6.135 -21.12 -14.75 a 23 23 0 0 0 44.875 -7 a 23 23 0 0 0 -16 -21.875 z" style="opacity:0.2"/>
 </g>
 <g>
  <path d="m 24 1 c 12.703 0 23 10.297 23 23 c 0 12.703 -10.297 23 -23 23 -12.703 0 -23 -10.297 -23 -23 0 -12.703 10.297 -23 23 -23 z" style="fill:url(#linearGradient3764);fill-opacity:1"/>
 </g>
 <g>
  <path d="m 40.03 7.531 c 3.712 4.084 5.969 9.514 5.969 15.469 0 12.703 -10.297 23 -23 23 c -5.954 0 -11.384 -2.256 -15.469 -5.969 4.178 4.291 10.01 6.969 16.469 6.969 c 12.703 0 23 -10.298 23 -23 0 -6.462 -2.677 -12.291 -6.969 -16.469 z" style="opacity:0.1"/>
 </g>
 <g transform="matrix(3.543307,0,0,3.543307,1.7839312e-5,0.00299989)">
  <path d="M 13.813,16 C 13.372,16.051 12.997,16.465 13,16.938 l 0,17.09 c 0,0.5 0.434,0.969 0.906,0.969 l 22.09,0 c 0.473,0 1,-0.5 1,-1 l 0,-15 c 0,-0.5 -0.527,-1 -1,-1 l -9,0 0,-1 c -10e-5,-0.648 -0.449,-1 -1,-1 l -12.188,0 z m 7.688,6 0.031,0 c 1.017,0.005 1.976,0.262 2.813,0.719 -0.203,0.156 -0.546,0.438 -0.844,0.719 -0.607,-0.27 -1.292,-0.406 -2,-0.406 -0.485,0 -0.934,0.09 -1.375,0.219 0.27,1.332 1.057,2.445 2.156,3.156 0.051,0.032 0.171,0.102 0.313,0.188 0.25,0.156 0.574,0.332 0.938,0.406 0.461,0.137 0.964,0.188 1.469,0.188 0.281,0 0.57,-0.016 0.844,-0.063 0.032,0.121 0.043,0.343 0.031,0.656 -0.008,0.176 -0.015,0.304 -0.031,0.406 -0.281,0.043 -0.55,0.063 -0.844,0.063 -0.541,0 -1.062,-0.082 -1.563,-0.219 0.003,1.41 0.565,2.692 1.5,3.594 0.904,-0.875 1.492,-2.086 1.531,-3.438 l 0,-0.031 0,-0.094 c 0.004,-0.144 0.032,-0.5 -0.031,-0.813 -0.024,-0.125 -0.05,-0.187 -0.063,-0.25 -0.031,-0.133 -0.063,-0.188 -0.063,-0.188 -0.172,-0.687 -0.484,-1.305 -0.906,-1.844 0.027,-0.024 0.413,-0.355 0.844,-0.656 0.517,0.664 0.895,1.469 1.094,2.313 1.279,-0.683 2.195,-1.914 2.5,-3.375 -0.457,-0.141 -0.937,-0.219 -1.438,-0.219 -0.841,0 -1.621,0.227 -2.313,0.594 -0.106,0.055 -0.21,0.125 -0.313,0.188 -0.203,0.133 -0.464,0.32 -0.813,0.625 -0.011,0.011 -0.023,0.019 -0.031,0.031 -0.035,0.031 -0.071,0.067 -0.094,0.094 -0.011,0.012 -0.027,0.023 -0.031,0.031 -0.488,0.516 -0.891,1.133 -1.125,1.813 -0.281,-0.133 -0.59,-0.312 -0.906,-0.5 0.293,-0.774 0.749,-1.445 1.313,-2.031 0.02,-0.02 0.011,-0.043 0.031,-0.063 0.171,-0.164 0.437,-0.434 0.813,-0.719 C 25.915,22.403 27.12,22 28.407,22 c 0.532,0 1.066,0.086 1.563,0.219 0.274,0.09 0.773,0.242 1,0.344 l 0,0.031 c 0.007,0.004 0.023,-0.004 0.031,0 0,0.055 -0.078,0.583 -0.188,1.063 0.004,0.004 -0.008,0.027 0,0.031 -0.441,1.79 -1.67,3.242 -3.313,4 0.003,0.113 0,0.231 0,0.344 0,1.648 -0.652,3.129 -1.719,4.219 -0.082,0.09 -0.395,0.437 -0.75,0.75 -0.011,-0.016 -0.039,-0.019 -0.063,-0.031 -0.086,-0.066 -0.503,-0.399 -0.813,-0.688 0.008,-0.004 -0.008,-0.027 0,-0.031 -1.067,-1.089 -1.75,-2.571 -1.75,-4.219 0,-0.125 0.023,-0.254 0.031,-0.375 -1.615,-0.782 -2.828,-2.247 -3.25,-4.03 -0.039,-0.196 -0.132,-0.629 -0.188,-1.063 0.008,-0.004 0.027,0 0.031,0 l 0,-0.031 c 0.078,-0.035 0.468,-0.238 1,-0.375 l 0,0.031 c 0.467,-0.119 0.963,-0.185 1.469,-0.188 z" transform="scale(0.28222223,0.28222223)" style="fill:#000;opacity:0.1;fill-opacity:1;stroke:none;fill-rule:nonzero"/>
  <path d="m 5.08 4.233 0 0.564 0.564 0 0 -0.564 m -0.564 0.564 -0.564 0 0 0.564 0.564 0 m 0 0 0 0.564 0.564 0 0 -0.564 m -0.564 0.564 -0.564 0 0 0.564 0.564 0 m 0 0 0 0.564 0.564 0 0 -0.564 m -1.129 0.846 0 1.129 1.129 0 0 -1.129 m -1.129 0" style="fill:#000;opacity:0.1;fill-opacity:1;stroke:none;fill-rule:nonzero"/>
  <path d="M 12.813,15 C 12.372,15.051 11.997,15.496 12,15.969 l 0,17.06 c 0,0.5 0.434,0.969 0.906,0.969 l 22.09,0 c 0.473,0 1,-0.5 1,-1 l 0,-14.969 c 0,-0.5 -0.527,-1 -1,-1 l -9,0 0,-1.031 c -10e-5,-0.647 -0.449,-1 -1,-1 l -12.188,0 z m 7.688,6 0.031,0 c 1.017,0.005 1.976,0.262 2.813,0.719 -0.203,0.156 -0.546,0.438 -0.844,0.719 -0.607,-0.27 -1.292,-0.406 -2,-0.406 -0.485,0 -0.934,0.09 -1.375,0.219 0.27,1.332 1.057,2.445 2.156,3.156 0.051,0.032 0.171,0.102 0.313,0.188 0.25,0.156 0.574,0.332 0.938,0.406 0.461,0.137 0.964,0.188 1.469,0.188 0.281,0 0.57,-0.016 0.844,-0.063 0.032,0.121 0.043,0.343 0.031,0.656 -0.008,0.176 -0.015,0.304 -0.031,0.406 -0.281,0.043 -0.55,0.063 -0.844,0.063 -0.541,0 -1.062,-0.082 -1.563,-0.219 0.003,1.41 0.565,2.692 1.5,3.594 0.904,-0.875 1.492,-2.086 1.531,-3.438 l 0,-0.031 0,-0.094 c 0.004,-0.144 0.032,-0.5 -0.031,-0.813 -0.024,-0.125 -0.05,-0.187 -0.063,-0.25 -0.031,-0.133 -0.063,-0.188 -0.063,-0.188 -0.172,-0.687 -0.484,-1.305 -0.906,-1.844 0.027,-0.024 0.413,-0.355 0.844,-0.656 0.517,0.664 0.895,1.469 1.094,2.313 1.279,-0.683 2.195,-1.914 2.5,-3.375 -0.457,-0.141 -0.937,-0.219 -1.438,-0.219 -0.841,0 -1.621,0.227 -2.313,0.594 -0.106,0.055 -0.21,0.125 -0.313,0.188 -0.203,0.133 -0.464,0.32 -0.813,0.625 -0.011,0.011 -0.023,0.019 -0.031,0.031 -0.035,0.031 -0.071,0.067 -0.094,0.094 -0.011,0.012 -0.027,0.023 -0.031,0.031 -0.488,0.516 -0.891,1.133 -1.125,1.813 -0.281,-0.133 -0.59,-0.312 -0.906,-0.5 0.293,-0.774 0.749,-1.445 1.313,-2.031 0.02,-0.02 0.011,-0.043 0.031,-0.063 0.171,-0.164 0.437,-0.434 0.813,-0.719 C 24.915,21.403 26.12,21 27.407,21 c 0.532,0 1.066,0.086 1.563,0.219 0.274,0.09 0.773,0.242 1,0.344 l 0,0.031 c 0.007,0.004 0.023,-0.004 0.031,0 0,0.055 -0.078,0.583 -0.188,1.063 0.004,0.004 -0.008,0.027 0,0.031 -0.441,1.79 -1.67,3.242 -3.313,4 0.003,0.113 0,0.231 0,0.344 0,1.648 -0.652,3.129 -1.719,4.219 -0.082,0.09 -0.395,0.437 -0.75,0.75 -0.011,-0.016 -0.039,-0.019 -0.063,-0.031 -0.086,-0.066 -0.503,-0.399 -0.813,-0.688 0.008,-0.004 -0.008,-0.027 0,-0.031 -1.067,-1.089 -1.75,-2.571 -1.75,-4.219 0,-0.125 0.023,-0.254 0.031,-0.375 -1.615,-0.782 -2.828,-2.247 -3.25,-4.03 -0.039,-0.196 -0.132,-0.629 -0.188,-1.063 0.008,-0.004 0.027,0 0.031,0 l 0,-0.031 c 0.078,-0.035 0.468,-0.238 1,-0.375 l 0,0.031 c 0.467,-0.119 0.963,-0.185 1.469,-0.188 z" transform="scale(0.28222223,0.28222223)" style="fill:#ececec;fill-opacity:1;stroke:none;fill-rule:nonzero"/>
 </g>
</svg>
